symbols/be/PVR-{140}.svg

<?xml version="1.0" encoding="UTF-8" standalone="no"?>
<!-- Initially created with Inkscape, optimized by hand -->

<svg
   version="1.1"
   width="20"
   height="17.320999"
   id="svg1"
   xmlns="http://www.w3.org/2000/svg"
   xmlns:svg="http://www.w3.org/2000/svg">
  <defs
     id="defs1" />
  <path
     id="Fond"
     d="M 20,17.320999 H 0 L 10,-1.2114258e-6 Z"
     fill="#0b9b7b"
     style="stroke-width:0.1" />
  <path
     style="font-size:10.6667px;font-family:Isonorm;-inkscape-font-specification:'Isonorm, Normal';fill:#ffffff;fill-rule:evenodd;stroke-width:0.377953;stroke-linejoin:bevel"
     d="M 8.488733,15.130489 V 8.7411348 c 0,-0.106667 -0.032,-0.192 -0.106667,-0.266667 -0.064,-0.07467 -0.362668,-0.149334 -0.501335,-0.01067 l -1.429338,1.429338 c -0.149334,0.1493342 -0.096,0.4266682 0.01067,0.5333352 0.096,0.106667 0.352002,0.128 0.490669,-0.01067 L 7.774068,9.5837988 V 15.14115 c 0,0.192 0.170667,0.352001 0.362667,0.352001 0.192001,0 0.352002,-0.160001 0.352002,-0.362668 z m 5.152007,-1.418671 c 0,-0.192001 -0.16,-0.352001 -0.352,-0.352001 H 12.57407 V 12.28248 c 0,-0.192001 -0.16,-0.341335 -0.352,-0.341335 -0.192,0 -0.36267,0.160001 -0.36267,0.352002 v 1.06667 h -1.66401 l 1.30134,-4.5546812 c 0.0533,-0.202668 -0.0853,-0.426668 -0.34133,-0.426668 -0.128,-0.01067 -0.29867,0.07467 -0.34134,0.234667 L 9.374058,13.626484 c -0.032,0.138667 0.032,0.298668 0.096,0.341334 0.08533,0.07467 0.149334,0.106667 0.256001,0.106667 H 11.8594 v 1.066671 c 0,0.192 0.17067,0.352001 0.36267,0.352001 0.192,0 0.352,-0.160001 0.352,-0.352001 v -1.066671 h 0.71467 c 0.192,0 0.352,-0.170667 0.352,-0.362667 z"
     id="text1"
     aria-label="14" />
</svg>

<?xml version="1.0" encoding="UTF-8"?>
<svg xmlns="http://www.w3.org/2000/svg" xmlns:xlink="http://www.w3.org/1999/xlink" width="20" height="17.320999" viewBox="0 0 20 17.320999">
<path fill-rule="nonzero" fill="rgb(4.313725%, 60.784314%, 48.235294%)" fill-opacity="1" d="M 20 17.320312 L 0 17.320312 L 10 0 Z M 20 17.320312 "/>
<path fill-rule="evenodd" fill="rgb(100%, 100%, 100%)" fill-opacity="1" d="M 8.488281 15.128906 L 8.488281 8.742188 C 8.488281 8.632812 8.457031 8.550781 8.382812 8.472656 C 8.316406 8.398438 8.019531 8.324219 7.878906 8.464844 L 6.453125 9.894531 C 6.300781 10.042969 6.355469 10.320312 6.460938 10.425781 C 6.558594 10.53125 6.8125 10.554688 6.953125 10.414062 L 7.773438 9.582031 L 7.773438 15.140625 C 7.773438 15.332031 7.945312 15.492188 8.136719 15.492188 C 8.328125 15.492188 8.488281 15.332031 8.488281 15.128906 Z M 13.640625 13.710938 C 13.640625 13.519531 13.480469 13.359375 13.289062 13.359375 L 12.574219 13.359375 L 12.574219 12.28125 C 12.574219 12.089844 12.414062 11.941406 12.222656 11.941406 C 12.03125 11.941406 11.859375 12.101562 11.859375 12.292969 L 11.859375 13.359375 L 10.195312 13.359375 L 11.496094 8.804688 C 11.550781 8.601562 11.410156 8.378906 11.15625 8.378906 C 11.027344 8.367188 10.855469 8.453125 10.8125 8.613281 L 9.375 13.625 C 9.34375 13.765625 9.40625 13.925781 9.46875 13.96875 C 9.554688 14.042969 9.621094 14.074219 9.726562 14.074219 L 11.859375 14.074219 L 11.859375 15.140625 C 11.859375 15.332031 12.03125 15.492188 12.222656 15.492188 C 12.414062 15.492188 12.574219 15.332031 12.574219 15.140625 L 12.574219 14.074219 L 13.289062 14.074219 C 13.480469 14.074219 13.640625 13.902344 13.640625 13.710938 Z M 13.640625 13.710938 "/>
</svg>
